svgs/thin/hockey-sticks.svg

<svg xmlns="http://www.w3.org/2000/svg" viewBox="0 0 640 512"><!--! Font Awesome Pro 6.6.0 by @fontawesome - https://fontawesome.com License - https://fontawesome.com/license (Commercial License) Copyright 2024 Fonticons, Inc. --><path d="M511.1 11.7c2-3.9 .5-8.8-3.4-10.8s-8.8-.5-10.8 3.4L328.3 330.7 48 330.7c-26.5 0-48 21.5-48 48L0 464c0 26.5 21.5 48 48 48l170.5 0c20.9 0 40.1-11.7 49.8-30.3l242.9-470zM112 346.7l208 0L254 474.4c-6.9 13.3-20.6 21.6-35.5 21.6L112 496l0-149.3zm-16 0L96 496l-48 0c-17.7 0-32-14.3-32-32l0-85.3c0-17.7 14.3-32 32-32l48 0zm199.2-48L143.1 4.3c-2-3.9-6.9-5.5-10.8-3.4s-5.5 6.9-3.4 10.8l148.3 287 18 0zM338 416.4l33.7 65.3c9.6 18.6 28.8 30.3 49.8 30.3L592 512c26.5 0 48-21.5 48-48l0-85.3c0-26.5-21.5-48-48-48l-209.7 0-8.3 16 154 0L528 496l-106.5 0c-15 0-28.7-8.3-35.5-21.6L347 399l-9 17.4zm254-69.7c17.7 0 32 14.3 32 32l0 85.3c0 17.7-14.3 32-32 32l-48 0 0-149.3 48 0z"/></svg>

<svg xmlns="http://www.w3.org/2000/svg" viewBox="0 0 640 512"><!--! Font Awesome Pro 6.5.2 by @fontawesome - https://fontawesome.com License - https://fontawesome.com/license (Commercial License) Copyright 2024 Fonticons, Inc. --><path d="M511.1 11.7c2-3.9 .5-8.8-3.4-10.8s-8.8-.5-10.8 3.4L328.3 330.7H48c-26.5 0-48 21.5-48 48V464c0 26.5 21.5 48 48 48H218.5c20.9 0 40.1-11.7 49.8-30.3l242.9-470zM112 346.7H320L254 474.4c-6.9 13.3-20.6 21.6-35.5 21.6H112V346.7zm-16 0V496H48c-17.7 0-32-14.3-32-32V378.7c0-17.7 14.3-32 32-32H96zm199.2-48L143.1 4.3c-2-3.9-6.9-5.5-10.8-3.4s-5.5 6.9-3.4 10.8l148.3 287h18zM338 416.4l33.7 65.3c9.6 18.6 28.8 30.3 49.8 30.3H592c26.5 0 48-21.5 48-48V378.7c0-26.5-21.5-48-48-48H382.3l-8.3 16H528V496H421.5c-15 0-28.7-8.3-35.5-21.6L347 399l-9 17.4zm254-69.7c17.7 0 32 14.3 32 32V464c0 17.7-14.3 32-32 32H544V346.7h48z"/></svg>
